libs/ui/packages/crypto-icons/src/svg/RAFF.svg

<svg width="24" height="24" viewBox="0 0 24 24" fill="none" xmlns="http://www.w3.org/2000/svg">
<path d="M20.8785 9.83398L18.3782 5.50195H13.3774H8.37671H3.37598L5.87634 9.83398H10.8771H15.8778L13.3774 14.166L15.8778 18.4981H20.8785L18.3782 14.166L20.8785 9.83398Z" fill="white"/>
<path d="M8.37695 14.166L10.8773 18.4981L13.3777 14.166H8.37695Z" fill="white"/>
<path opacity="0.4" d="M10.877 9.83398H15.8777L13.3773 14.166L10.877 9.83398Z" fill="white"/>
</svg>

<svg xmlns="http://www.w3.org/2000/svg" width="24" height="24" viewBox="0 0 24 24" fill="none"><path fill="#fff" d="m20.879 9.834-2.5-4.332H3.375l2.5 4.332h10.001l-2.5 4.332 2.5 4.332h5.001l-2.5-4.332z"/><path fill="#fff" d="m8.377 14.166 2.5 4.332 2.5-4.332z"/><path fill="#fff" d="M10.877 9.834h5l-2.5 4.332z" opacity=".4"/></svg>
